X: 12860
T: Fermoy Lasses Highland, The
R: strathspey
M: 4/4
K: Bminor
f>e|:d<BB>A F<BB>c|d>Bd>e f2B>c|d<BB>A F<BB>c|e>cA>ce2f>e|
d<BB>A F<BB>c|d>Bd>e f2B>c|d2d>c d>fa>f|e<cA>c e>af>e:|
d>ef>a a>fe>c|d>e f<aa2f>e|d>ef>g a>ba>f|e<cA>ce2f>e|
d>e f<a a>fe>c|d>e f<ab4|e'>c'd'>a b<d'c'>b|a>f e>c A>Bc>e||

